svgs/sharp-light/crosshairs-simple.svg

<svg xmlns="http://www.w3.org/2000/svg" viewBox="0 0 512 512"><!--! Font Awesome Pro 6.6.0 by @fontawesome - https://fontawesome.com License - https://fontawesome.com/license (Commercial License) Copyright 2024 Fonticons, Inc. --><path d="M479.4 240L384 240l-16 0 0 32 16 0 95.4 0C471.6 383 383 471.6 272 479.4l0-95.4 0-16-32 0 0 16 0 95.4C129 471.6 40.4 383 32.6 272l95.4 0 16 0 0-32-16 0-95.4 0C40.4 129 129 40.4 240 32.6l0 95.4 0 16 32 0 0-16 0-95.4C383 40.4 471.6 129 479.4 240zM256 512A256 256 0 1 0 256 0a256 256 0 1 0 0 512z"/></svg>

<svg xmlns="http://www.w3.org/2000/svg" viewBox="0 0 512 512"><!--! Font Awesome Pro 6.4.0 by @fontawesome - https://fontawesome.com License - https://fontawesome.com/license (Commercial License) Copyright 2023 Fonticons, Inc. --><path d="M479.4 240H384 368v32h16 95.4C471.6 383 383 471.6 272 479.4V384 368H240v16 95.4C129 471.6 40.4 383 32.6 272H128h16V240H128 32.6C40.4 129 129 40.4 240 32.6V128v16h32V128 32.6C383 40.4 471.6 129 479.4 240zM256 512A256 256 0 1 0 256 0a256 256 0 1 0 0 512z"/></svg>
